frontend/src/assets/img/legend/service-entry.svg

<?xml version="1.0" encoding="UTF-8" standalone="no"?>
<!-- Created with Inkscape (http://www.inkscape.org/) -->

<svg
   xmlns:dc="http://purl.org/dc/elements/1.1/"
   xmlns:cc="http://creativecommons.org/ns#"
   xmlns:rdf="http://www.w3.org/1999/02/22-rdf-syntax-ns#"
   xmlns:svg="http://www.w3.org/2000/svg"
   xmlns="http://www.w3.org/2000/svg"
   xmlns:sodipodi="http://sodipodi.sourceforge.net/DTD/sodipodi-0.dtd"
   xmlns:inkscape="http://www.inkscape.org/namespaces/inkscape"
   width="27"
   height="27"
   viewBox="0 0 27 27"
   version="1.1"
   id="SVGRoot"
   inkscape:version="0.92.4 (unknown)"
   sodipodi:docname="service-entry.svg">
  <defs
     id="defs4396" />
  <sodipodi:namedview
     id="base"
     pagecolor="#ffffff"
     bordercolor="#666666"
     borderopacity="1.0"
     inkscape:pageopacity="0.0"
     inkscape:pageshadow="2"
     inkscape:zoom="11.313709"
     inkscape:cx="22.012485"
     inkscape:cy="24.808252"
     inkscape:document-units="px"
     inkscape:current-layer="layer1"
     showgrid="true"
     inkscape:window-width="1918"
     inkscape:window-height="1038"
     inkscape:window-x="1920"
     inkscape:window-y="540"
     inkscape:window-maximized="1"
     inkscape:grid-bbox="true">
    <inkscape:grid
       type="xygrid"
       id="grid4415" />
  </sodipodi:namedview>
  <metadata
     id="metadata4399">
    <rdf:RDF>
      <cc:Work
         rdf:about="">
        <dc:format>image/svg+xml</dc:format>
        <dc:type
           rdf:resource="http://purl.org/dc/dcmitype/StillImage" />
        <dc:title />
      </cc:Work>
    </rdf:RDF>
  </metadata>
  <g
     inkscape:label="Layer 1"
     inkscape:groupmode="layer"
     id="layer1"
     transform="translate(0,11)">
    <path
       style="fill:none;stroke:#8b8d8f;stroke-width:1px;stroke-linecap:butt;stroke-linejoin:miter;stroke-opacity:1"
       d="M 2.1835825,-8.0691068 1.8852718,-7.5416306 V 12.511476 L 2.2388252,13.135398 2.8904756,13.5 H 15.894611 l 0.84703,-0.209922 0.607525,-0.408604 7.685809,-10.2477447 0.0769,-1.0784866 L 24.932759,0.44165202 17.526084,-7.7879868 16.67535,-8.1906408 15.872514,-8.5 H 2.8020873 Z"
       id="path814"
       inkscape:connector-curvature="0"
       sodipodi:nodetypes="cccccccccccccccc" />
  </g>
</svg>

<svg xmlns="http://www.w3.org/2000/svg" width="27" height="27"><path style="fill:none;stroke:#8b8d8f;stroke-width:1px;stroke-linecap:butt;stroke-linejoin:miter;stroke-opacity:1" d="m2.184-8.07-.299.528v20.053l.354.624.651.365h13.005l.847-.21.607-.409 7.686-10.247.077-1.079-.18-1.113-7.406-8.23-.85-.403-.803-.309H2.803Z" transform="translate(0 11)"/></svg>
